public/images/logo.svg

<svg xmlns="http://www.w3.org/2000/svg" width="1324" height="385" fill="none" viewBox="0 0 1324 385"><path fill="#fff" d="M913.841 326.453q-15.073 0-27.526-4.369-10.958-3.913-19.811-10.456c-1.257-.928-1.796-2.532-1.423-4.049l3.832-15.583c.822-3.341 5.355-4.256 7.817-1.852q5.06 4.941 11.77 8.564 10.923 5.9 25.122 5.899 22.065 0 35.609-13.326 13.764-13.326 13.763-34.298v-6.291c0-3.563-4.448-5.483-7.318-3.37q-6.109 4.497-13.435 7.695-11.797 5.024-25.342 5.024-17.913 0-32.769-8.957-14.854-9.174-23.812-24.467-8.738-15.292-8.738-33.861 0-18.57 8.738-33.861 8.958-15.292 23.812-24.249 14.856-9.175 32.769-9.175 13.545 0 25.342 5.024 7.278 3.043 13.353 7.53c2.886 2.131 7.4.211 7.4-3.377v-3.43a4 4 0 0 1 4-4h13.846a4 4 0 0 1 4 4v127.076q0 21.408-10.049 36.701-9.83 15.291-25.997 23.375-16.165 8.082-34.953 8.083m6.117-87.821q12.452 0 22.501-6.117 10.268-6.335 16.166-16.602 6.117-10.486 6.117-23.157t-6.117-22.938q-5.898-10.486-16.166-16.603-10.049-6.335-22.501-6.335t-22.72 6.335q-10.049 6.117-16.166 16.603-5.898 10.268-5.898 22.938t5.898 23.157q6.117 10.267 16.166 16.602 10.267 6.117 22.72 6.117M736.698 331.932a2.74 2.74 0 0 1-2.741-2.741v-50.64a2.74 2.74 0 0 1 2.741-2.741h4.731c1.039 0 1.882.842 1.882 1.882 0 1.857 2.682 2.783 4.13 1.62a18.8 18.8 0 0 1 3.633-2.286q4.771-2.338 10.009-2.338 5.706 0 10.476 2.712a20 20 0 0 1 5.044 3.91c1.38 1.477 3.926 1.513 5.331.06a20.4 20.4 0 0 1 5.713-4.157 25.1 25.1 0 0 1 11.038-2.525q6.36 0 11.598 2.993 5.332 2.993 8.419 8.418 3.18 5.331 3.18 12.628v30.464a2.74 2.74 0 0 1-2.741 2.741h-4.62a2.74 2.74 0 0 1-2.741-2.741v-29.248q0-7.67-4.396-11.599-4.303-4.022-10.009-4.022-3.554 0-6.921 1.59-3.274 1.59-5.426 4.957-2.057 3.367-2.057 8.793v29.529a2.74 2.74 0 0 1-2.742 2.741h-4.619a2.74 2.74 0 0 1-2.741-2.741v-29.248q0-5.332-2.152-8.793-2.058-3.46-5.425-5.144-3.274-1.778-6.828-1.778-3.461 0-6.828 1.59-3.274 1.591-5.426 4.958-2.151 3.368-2.151 8.886v29.529a2.74 2.74 0 0 1-2.741 2.741zM690.398 333.055q-8.138 0-14.872-3.929-6.735-3.928-10.757-10.57-3.929-6.64-3.929-14.685 0-8.137 3.929-14.685 4.022-6.642 10.757-10.57t14.872-3.928q8.232 0 14.873 3.928 6.734 3.928 10.663 10.57 4.022 6.548 4.022 14.685 0 8.044-4.022 14.685-3.929 6.642-10.663 10.57-6.641 3.929-14.873 3.929m0-9.541q5.426 0 9.821-2.619 4.397-2.712 7.016-7.109 2.619-4.49 2.619-9.915t-2.619-9.821q-2.62-4.49-7.016-7.109-4.395-2.713-9.821-2.713-5.425 0-9.821 2.713-4.397 2.62-7.016 7.109-2.619 4.396-2.619 9.821 0 5.426 2.619 9.915 2.62 4.397 7.016 7.109 4.396 2.619 9.821 2.619M631.657 333.055q-8.231 0-14.966-3.929t-10.757-10.57-4.022-14.685 4.022-14.685q4.022-6.642 10.757-10.57t14.966-3.928q6.08 0 11.411 2.151 4.512 1.82 8.086 4.646c.798.63 1.118 1.678.878 2.666l-.931 3.836c-.602 2.482-4.407 3.085-6.317 1.388a23 23 0 0 0-2.558-1.966q-4.677-3.181-10.663-3.181-5.426 0-9.915 2.713-4.396 2.62-7.015 7.109-2.619 4.396-2.619 9.821 0 5.332 2.619 9.822t7.015 7.202q4.49 2.619 9.915 2.619 5.986 0 10.663-3.087a21.4 21.4 0 0 0 2.498-1.882c1.935-1.7 5.813-1.114 6.421 1.389l.887 3.658c.24.987-.08 2.035-.878 2.665q-3.574 2.826-8.086 4.646-5.331 2.152-11.411 2.152M584.233 333.055q-3.087 0-5.238-2.058-2.058-2.151-2.058-5.238t2.058-5.145q2.151-2.151 5.238-2.151 3.18 0 5.238 2.151 2.058 2.058 2.058 5.145t-2.058 5.238q-2.058 2.058-5.238 2.058M707.465 258.294a4 4 0 0 1-4-4V131.218a4 4 0 0 1 4-4h13.846a4 4 0 0 1 4 4v3.199c0 4.022 5.893 5.935 8.852 3.211a47.6 47.6 0 0 1 9.717-6.914q11.578-6.117 24.904-6.117 13.982 0 25.778 6.99 12.015 6.773 19.443 19.88 7.428 12.89 7.428 31.458v71.369a4 4 0 0 1-4 4h-15.594a4 4 0 0 1-4-4v-68.092q0-15.51-9.394-27.307-9.175-12.015-25.996-12.016-13.764 0-24.686 10.05-10.704 9.83-10.705 28.618v68.747a4 4 0 0 1-4 4zM593.717 260.041q-17.914 0-32.769-8.957-14.856-9.174-23.812-24.467-8.739-15.292-8.739-33.861 0-18.57 8.739-33.861 8.956-15.292 23.812-24.249 14.855-9.175 32.769-9.175 13.543 0 25.341 5.024 7.278 3.043 13.354 7.53c2.886 2.131 7.4.211 7.4-3.377v-3.43a4 4 0 0 1 4-4h13.845a4 4 0 0 1 4 4v123.076a4 4 0 0 1-4 4h-13.845a4 4 0 0 1-4-4v-3.602c0-3.563-4.449-5.483-7.318-3.37q-6.109 4.497-13.436 7.695-11.798 5.024-25.341 5.024m3.058-21.409q12.453 0 22.501-6.117 10.268-6.335 16.166-16.602 6.117-10.486 6.117-23.157t-6.117-22.938q-5.898-10.486-16.166-16.603-10.048-6.335-22.501-6.335-12.452 0-22.72 6.335-10.049 6.117-16.166 16.603-5.898 10.268-5.898 22.938t5.898 23.157q6.117 10.267 16.166 16.602 10.268 6.117 22.72 6.117M457.842 257.352c-1.453 3.022-5.756 3.022-7.209 0l-59.831-124.4c-1.277-2.656.658-5.734 3.605-5.734h17.966a4 4 0 0 1 3.621 2.301l25.573 54.499a453 453 0 0 1 6.991 15.073 104 104 0 0 1 2.147 5.282c1.403 3.728 7.119 3.775 8.548.057a119 119 0 0 1 2.194-5.339q3.495-7.646 6.99-15.073l25.788-54.51a4 4 0 0 1 3.615-2.29h16.228c2.947 0 4.882 3.078 3.605 5.734zM296.647 260.041q-17.914 0-32.769-8.957-14.856-9.174-23.812-24.467-8.739-15.292-8.739-33.861 0-18.57 8.739-33.861 8.956-15.292 23.812-24.249 14.855-9.175 32.769-9.175 13.543 0 25.341 5.024 7.278 3.043 13.354 7.53c2.886 2.131 7.399.211 7.399-3.377v-3.43a4 4 0 0 1 4-4h13.846a4 4 0 0 1 4 4v123.076a4 4 0 0 1-4 4h-13.846a4 4 0 0 1-4-4v-3.602c0-3.563-4.448-5.483-7.317-3.37q-6.109 4.497-13.436 7.695-11.798 5.024-25.341 5.024m3.058-21.409q12.452 0 22.501-6.117 10.268-6.335 16.166-16.602 6.117-10.486 6.117-23.157t-6.117-22.938q-5.898-10.486-16.166-16.603-10.049-6.335-22.501-6.335t-22.72 6.335q-10.049 6.117-16.166 16.603-5.898 10.268-5.898 22.938t5.898 23.157q6.117 10.267 16.166 16.602 10.268 6.117 22.72 6.117M179.068 258.294a4 4 0 0 1-4-4V131.218a4 4 0 0 1 4-4h15.593a4 4 0 0 1 4 4v123.076a4 4 0 0 1-4 4zm7.796-154.669q-6.554 0-11.141-4.588-4.588-4.587-4.588-11.141 0-6.773 4.588-11.142 4.587-4.587 11.141-4.588 6.772 0 11.142 4.588 4.587 4.37 4.587 11.142 0 6.554-4.587 11.141-4.37 4.587-11.142 4.588M62.26 326.453q-15.073 0-27.525-4.369-10.958-3.913-19.811-10.456c-1.257-.928-1.796-2.532-1.423-4.049l3.832-15.583c.822-3.341 5.355-4.256 7.816-1.852q5.062 4.941 11.77 8.564 10.924 5.9 25.123 5.899 22.065 0 35.61-13.326 13.761-13.326 13.762-34.298v-6.291c0-3.563-4.448-5.483-7.318-3.37q-6.107 4.497-13.436 7.695-11.796 5.024-25.34 5.024-17.914 0-32.77-8.957-14.854-9.174-23.812-24.467Q0 211.325 0 192.756q0-18.57 8.738-33.861 8.958-15.292 23.812-24.249 14.856-9.175 32.77-9.175 13.544 0 25.34 5.024 7.28 3.043 13.354 7.53c2.886 2.131 7.4.211 7.4-3.377v-3.43a4 4 0 0 1 4-4h13.846a4 4 0 0 1 4 4v127.076q0 21.408-10.049 36.701-9.83 15.291-25.997 23.375-16.166 8.082-34.953 8.083m6.118-87.821q12.452 0 22.5-6.117 10.269-6.335 16.167-16.602 6.117-10.486 6.117-23.157t-6.117-22.938q-5.898-10.486-16.166-16.603-10.05-6.335-22.501-6.335-12.453 0-22.72 6.335-10.05 6.117-16.166 16.603-5.898 10.268-5.898 22.938t5.898 23.157q6.117 10.267 16.166 16.602 10.267 6.117 22.72 6.117"/><path fill="url(#a)" d="M1236.91 45.404c48.05 0 87 38.951 87 87v120.042c0 48.049-38.95 87-87 87h-120.04c-48.05 0-87-38.951-87-87V132.404c0-23.614 9.41-45.031 24.68-60.707v182.749a4 4 0 0 0 4 4h15.59a4 4 0 0 0 4-4v-68.747q0-18.787 10.71-28.618c7.28-6.699 15.51-10.049 24.68-10.049 11.22 0 19.88 4.005 26 12.015q9.39 11.797 9.39 27.307v45.092c0 .669.17 1.299.46 1.854.33 2.227.9 4.417 1.71 6.529a30.9 30.9 0 0 0 6.67 10.406 30.7 30.7 0 0 0 22.36 9.288 30.736 30.736 0 0 0 22.14-9.787 30.9 30.9 0 0 0 6.43-10.552 31 31 0 0 0 1.56-6.548c.12-.376.18-.776.18-1.19v-.698c.08-1.261.09-2.529.01-3.796h-.01v-41.253q0-18.787 10.71-28.618c7.28-6.699 15.51-10.049 24.68-10.049 11.22 0 19.88 4.005 26 12.015q9.39 11.797 9.39 27.307v68.092c0 2.209 1.8 4 4 4h15.6a4 4 0 0 0 4-4v-71.368c0-12.379-2.48-22.866-7.43-31.459q-7.425-13.107-19.44-19.879c-7.87-4.66-16.46-6.991-25.78-6.991-8.88 0-17.19 2.039-24.9 6.117a47.2 47.2 0 0 0-9.72 6.914c-2.96 2.724-8.85.811-8.85-3.211v-3.198c0-2.209-1.8-4-4-4h-13.85a4 4 0 0 0-4 4v100.243a7.4 7.4 0 0 1-1.5 2.374c-.7.755-1.55 1.36-2.49 1.777a7.62 7.62 0 0 1-6 .067 7.63 7.63 0 0 1-4.33-4.722v-48.032c0-12.379-2.48-22.866-7.43-31.459q-7.425-13.107-19.44-19.879c-7.87-4.66-16.46-6.991-25.78-6.991-8.3 0-16.09 1.821-23.38 5.462a49 49 0 0 0-10.02 6.641c-2.95 2.523-8.33.613-8.33-3.266V54.477c11.67-5.807 24.82-9.073 38.73-9.073z"/><defs><linearGradient id="a" x1="1087.95" x2="1287.85" y1="45.404" y2="326.855" gradientUnits="userSpaceOnUse"><stop stop-color="#fff9ed"/><stop offset=".433" stop-color="#ffc955"/><stop offset="1" stop-color="#875c00"/></linearGradient></defs></svg>

<svg width="1324" height="385" viewBox="0 0 1324 385" fill="none" xmlns="http://www.w3.org/2000/svg">
<path d="M913.841 326.453C903.792 326.453 894.617 324.996 886.315 322.084C879.01 319.475 872.406 315.99 866.504 311.628C865.247 310.7 864.708 309.096 865.081 307.579L868.913 291.996C869.735 288.655 874.268 287.74 876.73 290.144C880.103 293.438 884.027 296.293 888.5 298.708C895.782 302.641 904.156 304.607 913.622 304.607C928.332 304.607 940.202 300.165 949.231 291.281C958.407 282.397 962.994 270.964 962.994 256.983V250.692C962.994 247.129 958.546 245.209 955.676 247.322C951.604 250.32 947.125 252.885 942.241 255.017C934.376 258.366 925.929 260.041 916.899 260.041C904.957 260.041 894.034 257.056 884.13 251.084C874.227 244.968 866.29 236.812 860.318 226.617C854.493 216.422 851.58 205.135 851.58 192.756C851.58 180.377 854.493 169.089 860.318 158.895C866.29 148.7 874.227 140.617 884.13 134.646C894.034 128.529 904.957 125.471 916.899 125.471C925.929 125.471 934.376 127.145 942.241 130.495C947.093 132.524 951.544 135.034 955.594 138.025C958.48 140.156 962.994 138.236 962.994 134.648V131.218C962.994 129.009 964.785 127.218 966.994 127.218H980.84C983.049 127.218 984.84 129.009 984.84 131.218V258.294C984.84 272.566 981.49 284.8 974.791 294.995C968.237 305.189 959.572 312.981 948.794 318.37C938.017 323.758 926.366 326.453 913.841 326.453ZM919.958 238.632C928.259 238.632 935.76 236.593 942.459 232.515C949.304 228.292 954.693 222.758 958.625 215.913C962.703 208.922 964.742 201.203 964.742 192.756C964.742 184.309 962.703 176.663 958.625 169.818C954.693 162.827 949.304 157.293 942.459 153.215C935.76 148.991 928.259 146.88 919.958 146.88C911.656 146.88 904.083 148.991 897.238 153.215C890.539 157.293 885.15 162.827 881.072 169.818C877.14 176.663 875.174 184.309 875.174 192.756C875.174 201.203 877.14 208.922 881.072 215.913C885.15 222.758 890.539 228.292 897.238 232.515C904.083 236.593 911.656 238.632 919.958 238.632Z" fill="white"/>
<path d="M736.698 331.932C735.184 331.932 733.957 330.705 733.957 329.191V278.551C733.957 277.037 735.184 275.81 736.698 275.81H741.429C742.468 275.81 743.311 276.652 743.311 277.692C743.311 279.549 745.993 280.475 747.441 279.312C748.56 278.414 749.771 277.652 751.074 277.026C754.255 275.467 757.591 274.688 761.083 274.688C764.887 274.688 768.379 275.592 771.559 277.4C773.464 278.446 775.146 279.75 776.603 281.31C777.983 282.787 780.529 282.823 781.934 281.37C783.593 279.654 785.498 278.268 787.647 277.213C791.139 275.529 794.819 274.688 798.685 274.688C802.925 274.688 806.791 275.685 810.283 277.681C813.838 279.676 816.644 282.482 818.702 286.099C820.822 289.653 821.882 293.863 821.882 298.727V329.191C821.882 330.705 820.655 331.932 819.141 331.932H814.521C813.007 331.932 811.78 330.705 811.78 329.191V299.943C811.78 294.829 810.315 290.963 807.384 288.344C804.515 285.663 801.179 284.322 797.375 284.322C795.006 284.322 792.698 284.852 790.454 285.912C788.271 286.972 786.463 288.625 785.028 290.869C783.656 293.114 782.971 296.045 782.971 299.662V329.191C782.971 330.705 781.743 331.932 780.229 331.932H775.61C774.096 331.932 772.869 330.705 772.869 329.191V299.943C772.869 296.388 772.151 293.457 770.717 291.15C769.345 288.843 767.537 287.128 765.292 286.006C763.109 284.821 760.833 284.228 758.464 284.228C756.157 284.228 753.88 284.758 751.636 285.818C749.453 286.879 747.645 288.531 746.21 290.776C744.776 293.021 744.059 295.983 744.059 299.662V329.191C744.059 330.705 742.832 331.932 741.318 331.932H736.698Z" fill="white"/>
<path d="M690.398 333.055C684.973 333.055 680.015 331.745 675.526 329.126C671.036 326.507 667.45 322.984 664.769 318.556C662.15 314.129 660.84 309.234 660.84 303.871C660.84 298.446 662.15 293.551 664.769 289.186C667.45 284.758 671.036 281.235 675.526 278.616C680.015 275.997 684.973 274.688 690.398 274.688C695.886 274.688 700.843 275.997 705.271 278.616C709.76 281.235 713.315 284.758 715.934 289.186C718.615 293.551 719.956 298.446 719.956 303.871C719.956 309.234 718.615 314.129 715.934 318.556C713.315 322.984 709.76 326.507 705.271 329.126C700.843 331.745 695.886 333.055 690.398 333.055ZM690.398 323.514C694.015 323.514 697.289 322.641 700.219 320.895C703.15 319.087 705.489 316.717 707.235 313.786C708.981 310.793 709.854 307.488 709.854 303.871C709.854 300.254 708.981 296.981 707.235 294.05C705.489 291.057 703.15 288.687 700.219 286.941C697.289 285.132 694.015 284.228 690.398 284.228C686.781 284.228 683.508 285.132 680.577 286.941C677.646 288.687 675.307 291.057 673.561 294.05C671.815 296.981 670.942 300.254 670.942 303.871C670.942 307.488 671.815 310.793 673.561 313.786C675.307 316.717 677.646 319.087 680.577 320.895C683.508 322.641 686.781 323.514 690.398 323.514Z" fill="white"/>
<path d="M631.657 333.055C626.169 333.055 621.181 331.745 616.691 329.126C612.201 326.507 608.615 322.984 605.934 318.556C603.253 314.129 601.912 309.234 601.912 303.871C601.912 298.508 603.253 293.613 605.934 289.186C608.615 284.758 612.201 281.235 616.691 278.616C621.181 275.997 626.169 274.688 631.657 274.688C635.71 274.688 639.514 275.405 643.068 276.839C646.076 278.053 648.771 279.601 651.154 281.485C651.952 282.115 652.272 283.163 652.032 284.151L651.101 287.987C650.499 290.469 646.694 291.072 644.784 289.375C643.999 288.678 643.147 288.022 642.226 287.409C639.108 285.288 635.554 284.228 631.563 284.228C627.946 284.228 624.641 285.132 621.648 286.941C618.717 288.687 616.379 291.057 614.633 294.05C612.887 296.981 612.014 300.254 612.014 303.871C612.014 307.426 612.887 310.699 614.633 313.693C616.379 316.686 618.717 319.087 621.648 320.895C624.641 322.641 627.946 323.514 631.563 323.514C635.554 323.514 639.108 322.485 642.226 320.427C643.123 319.847 643.956 319.219 644.724 318.545C646.659 316.845 650.537 317.431 651.145 319.934L652.032 323.592C652.272 324.579 651.952 325.627 651.154 326.257C648.771 328.141 646.076 329.69 643.068 330.903C639.514 332.338 635.71 333.055 631.657 333.055Z" fill="white"/>
<path d="M584.233 333.055C582.175 333.055 580.429 332.369 578.995 330.997C577.623 329.563 576.937 327.817 576.937 325.759C576.937 323.701 577.623 321.986 578.995 320.614C580.429 319.18 582.175 318.463 584.233 318.463C586.353 318.463 588.099 319.18 589.471 320.614C590.843 321.986 591.529 323.701 591.529 325.759C591.529 327.817 590.843 329.563 589.471 330.997C588.099 332.369 586.353 333.055 584.233 333.055Z" fill="white"/>
<path d="M707.465 258.294C705.256 258.294 703.465 256.503 703.465 254.294V131.218C703.465 129.009 705.256 127.218 707.465 127.218H721.311C723.52 127.218 725.311 129.009 725.311 131.218V134.417C725.311 138.439 731.204 140.352 734.163 137.628C737.1 134.925 740.338 132.62 743.88 130.714C751.599 126.636 759.9 124.597 768.784 124.597C778.105 124.597 786.698 126.927 794.562 131.587C802.572 136.102 809.053 142.729 814.005 151.467C818.957 160.06 821.433 170.546 821.433 182.925V254.294C821.433 256.503 819.642 258.294 817.433 258.294H801.839C799.63 258.294 797.839 256.503 797.839 254.294V186.202C797.839 175.862 794.708 166.759 788.445 158.895C782.329 150.885 773.663 146.879 762.449 146.879C753.273 146.879 745.045 150.229 737.763 156.929C730.627 163.482 727.058 173.022 727.058 185.547V254.294C727.058 256.503 725.268 258.294 723.058 258.294H707.465Z" fill="white"/>
<path d="M593.717 260.041C581.774 260.041 570.851 257.056 560.948 251.084C551.044 244.968 543.107 236.812 537.136 226.617C531.31 216.422 528.397 205.135 528.397 192.756C528.397 180.377 531.31 169.089 537.136 158.895C543.107 148.7 551.044 140.617 560.948 134.646C570.851 128.529 581.774 125.471 593.717 125.471C602.746 125.471 611.193 127.145 619.058 130.495C623.91 132.524 628.361 135.034 632.412 138.025C635.298 140.156 639.812 138.236 639.812 134.648V131.218C639.812 129.009 641.602 127.218 643.812 127.218H657.657C659.867 127.218 661.657 129.009 661.657 131.218V254.294C661.657 256.503 659.867 258.294 657.657 258.294H643.812C641.602 258.294 639.812 256.503 639.812 254.294V250.692C639.812 247.129 635.363 245.209 632.494 247.322C628.421 250.32 623.943 252.885 619.058 255.017C611.193 258.366 602.746 260.041 593.717 260.041ZM596.775 238.632C605.077 238.632 612.577 236.593 619.276 232.515C626.121 228.292 631.51 222.758 635.442 215.913C639.52 208.922 641.559 201.203 641.559 192.756C641.559 184.309 639.52 176.663 635.442 169.818C631.51 162.827 626.121 157.293 619.276 153.215C612.577 148.991 605.077 146.88 596.775 146.88C588.474 146.88 580.9 148.991 574.055 153.215C567.356 157.293 561.967 162.827 557.889 169.818C553.957 176.663 551.991 184.309 551.991 192.756C551.991 201.203 553.957 208.922 557.889 215.913C561.967 222.758 567.356 228.292 574.055 232.515C580.9 236.593 588.474 238.632 596.775 238.632Z" fill="white"/>
<path d="M457.842 257.352C456.389 260.374 452.086 260.374 450.633 257.352L390.802 132.952C389.525 130.296 391.46 127.218 394.407 127.218H412.373C413.924 127.218 415.336 128.115 415.994 129.519L441.567 184.018C444.043 189.115 446.373 194.139 448.558 199.091C449.281 200.732 449.997 202.492 450.705 204.373C452.108 208.101 457.824 208.148 459.253 204.43C459.984 202.528 460.716 200.748 461.447 199.091C463.777 193.994 466.107 188.969 468.437 184.018L494.225 129.508C494.886 128.11 496.294 127.218 497.84 127.218H514.068C517.015 127.218 518.95 130.296 517.673 132.952L457.842 257.352Z" fill="white"/>
<path d="M296.647 260.041C284.704 260.041 273.781 257.056 263.878 251.084C253.974 244.968 246.037 236.812 240.066 226.617C234.24 216.422 231.327 205.135 231.327 192.756C231.327 180.377 234.24 169.089 240.066 158.895C246.037 148.7 253.974 140.617 263.878 134.646C273.781 128.529 284.704 125.471 296.647 125.471C305.676 125.471 314.123 127.145 321.988 130.495C326.84 132.524 331.291 135.034 335.342 138.025C338.228 140.156 342.741 138.236 342.741 134.648V131.218C342.741 129.009 344.532 127.218 346.741 127.218H360.587C362.796 127.218 364.587 129.009 364.587 131.218V254.294C364.587 256.503 362.796 258.294 360.587 258.294H346.741C344.532 258.294 342.741 256.503 342.741 254.294V250.692C342.741 247.129 338.293 245.209 335.424 247.322C331.351 250.32 326.873 252.885 321.988 255.017C314.123 258.366 305.676 260.041 296.647 260.041ZM299.705 238.632C308.006 238.632 315.507 236.593 322.206 232.515C329.051 228.292 334.44 222.758 338.372 215.913C342.45 208.922 344.489 201.203 344.489 192.756C344.489 184.309 342.45 176.663 338.372 169.818C334.44 162.827 329.051 157.293 322.206 153.215C315.507 148.991 308.006 146.88 299.705 146.88C291.404 146.88 283.83 148.991 276.985 153.215C270.286 157.293 264.897 162.827 260.819 169.818C256.887 176.663 254.921 184.309 254.921 192.756C254.921 201.203 256.887 208.922 260.819 215.913C264.897 222.758 270.286 228.292 276.985 232.515C283.83 236.593 291.404 238.632 299.705 238.632Z" fill="white"/>
<path d="M179.068 258.294C176.858 258.294 175.068 256.503 175.068 254.294V131.218C175.068 129.009 176.858 127.218 179.068 127.218H194.661C196.87 127.218 198.661 129.009 198.661 131.218V254.294C198.661 256.503 196.87 258.294 194.661 258.294H179.068ZM186.864 103.625C182.495 103.625 178.781 102.095 175.723 99.037C172.664 95.9786 171.135 92.2648 171.135 87.8956C171.135 83.3808 172.664 79.667 175.723 76.7542C178.781 73.6957 182.495 72.1665 186.864 72.1665C191.379 72.1665 195.093 73.6957 198.006 76.7542C201.064 79.667 202.593 83.3808 202.593 87.8956C202.593 92.2648 201.064 95.9786 198.006 99.037C195.093 102.095 191.379 103.625 186.864 103.625Z" fill="white"/>
<path d="M62.2608 326.453C52.2117 326.453 43.0364 324.996 34.735 322.084C27.4301 319.475 20.8263 315.99 14.9235 311.628C13.6668 310.7 13.1282 309.096 13.5013 307.579L17.3332 291.996C18.1546 288.655 22.6883 287.74 25.1494 290.144C28.5233 293.438 32.4467 296.293 36.9196 298.708C44.2015 302.641 52.5758 304.607 62.0423 304.607C76.7519 304.607 88.6215 300.165 97.6511 291.281C106.826 282.397 111.414 270.964 111.414 256.983V250.692C111.414 247.129 106.966 245.209 104.096 247.322C100.024 250.32 95.5452 252.885 90.6604 255.017C82.7959 258.366 74.3488 260.041 65.3192 260.041C53.3768 260.041 42.4538 257.056 32.5504 251.084C22.6469 244.968 14.7096 236.812 8.73836 226.617C2.91279 216.422 0 205.135 0 192.756C0 180.377 2.91279 169.089 8.73836 158.895C14.7096 148.7 22.6469 140.617 32.5504 134.646C42.4538 128.529 53.3768 125.471 65.3192 125.471C74.3488 125.471 82.7959 127.145 90.6604 130.495C95.5125 132.524 99.9637 135.034 104.014 138.025C106.9 140.156 111.414 138.236 111.414 134.648V131.218C111.414 129.009 113.205 127.218 115.414 127.218H129.26C131.469 127.218 133.26 129.009 133.26 131.218V258.294C133.26 272.566 129.91 284.8 123.211 294.995C116.657 305.189 107.992 312.981 97.2142 318.37C86.4369 323.758 74.7858 326.453 62.2608 326.453ZM68.3776 238.632C76.6791 238.632 84.1795 236.593 90.8789 232.515C97.7239 228.292 103.113 222.758 107.045 215.913C111.123 208.922 113.162 201.203 113.162 192.756C113.162 184.309 111.123 176.663 107.045 169.818C103.113 162.827 97.7239 157.293 90.8789 153.215C84.1795 148.991 76.6791 146.88 68.3776 146.88C60.0762 146.88 52.503 148.991 45.6579 153.215C38.9585 157.293 33.5699 162.827 29.492 169.818C25.5597 176.663 23.5936 184.309 23.5936 192.756C23.5936 201.203 25.5597 208.922 29.492 215.913C33.5699 222.758 38.9585 228.292 45.6579 232.515C52.503 236.593 60.0762 238.632 68.3776 238.632Z" fill="white"/>
<path d="M1236.91 45.4042C1284.96 45.4042 1323.91 84.3554 1323.91 132.404V252.446C1323.91 300.495 1284.96 339.446 1236.91 339.446H1116.87C1068.82 339.446 1029.87 300.495 1029.87 252.446V132.404C1029.87 108.79 1039.28 87.3728 1054.55 71.6971V254.446C1054.55 256.655 1056.34 258.446 1058.55 258.446H1074.14C1076.35 258.446 1078.14 256.655 1078.14 254.446V185.699C1078.14 173.174 1081.71 163.635 1088.85 157.081C1096.13 150.382 1104.36 147.032 1113.53 147.032C1124.75 147.032 1133.41 151.037 1139.53 159.047C1145.79 166.911 1148.92 176.014 1148.92 186.354V231.446C1148.92 232.115 1149.09 232.745 1149.38 233.3C1149.71 235.527 1150.28 237.717 1151.09 239.829C1152.59 243.713 1154.86 247.254 1157.76 250.235C1160.66 253.217 1164.14 255.577 1167.98 257.174C1171.83 258.77 1175.95 259.57 1180.12 259.523C1184.28 259.477 1188.39 258.584 1192.19 256.902C1196 255.22 1199.42 252.782 1202.26 249.736C1205.09 246.691 1207.28 243.101 1208.69 239.184C1209.45 237.06 1209.97 234.864 1210.25 232.636C1210.37 232.26 1210.43 231.86 1210.43 231.446V230.748C1210.51 229.487 1210.52 228.219 1210.44 226.952H1210.43V185.699C1210.43 173.174 1214 163.635 1221.14 157.081C1228.42 150.382 1236.65 147.032 1245.82 147.032C1257.04 147.032 1265.7 151.037 1271.82 159.047C1278.08 166.911 1281.21 176.014 1281.21 186.354V254.446C1281.21 256.655 1283.01 258.446 1285.21 258.446H1300.81C1303.02 258.446 1304.81 256.655 1304.81 254.446V183.078C1304.81 170.699 1302.33 160.212 1297.38 151.619C1292.43 142.881 1285.95 136.255 1277.94 131.74C1270.07 127.08 1261.48 124.749 1252.16 124.749C1243.28 124.749 1234.97 126.788 1227.26 130.866C1223.71 132.773 1220.47 135.077 1217.54 137.78C1214.58 140.504 1208.69 138.591 1208.69 134.569V131.371C1208.69 129.162 1206.89 127.371 1204.69 127.371H1190.84C1188.63 127.371 1186.84 129.162 1186.84 131.371V231.446C1186.84 231.502 1186.84 231.558 1186.84 231.614C1186.5 232.491 1185.99 233.296 1185.34 233.988C1184.64 234.743 1183.79 235.348 1182.85 235.765C1181.91 236.181 1180.89 236.402 1179.86 236.414C1178.83 236.425 1177.8 236.227 1176.85 235.832C1175.9 235.436 1175.04 234.851 1174.32 234.112C1173.6 233.373 1173.04 232.496 1172.67 231.533C1172.61 231.394 1172.56 231.252 1172.52 231.11V183.078C1172.52 170.699 1170.04 160.212 1165.09 151.619C1160.14 142.881 1153.66 136.255 1145.65 131.74C1137.78 127.08 1129.19 124.749 1119.87 124.749C1111.57 124.749 1103.78 126.57 1096.49 130.211C1092.86 132.026 1089.52 134.24 1086.47 136.852C1083.52 139.375 1078.14 137.465 1078.14 133.586V54.4774C1089.81 48.6704 1102.96 45.4043 1116.87 45.4042H1236.91Z" fill="url(#paint0_linear_9_42)"/>
<defs>
<linearGradient id="paint0_linear_9_42" x1="1087.95" y1="45.4042" x2="1287.85" y2="326.855" gradientUnits="userSpaceOnUse">
<stop stop-color="#FFF9ED"/>
<stop offset="0.432692" stop-color="#FFC955"/>
<stop offset="1" stop-color="#875C00"/>
</linearGradient>
</defs>
</svg>
